demo/public/logoSOLO.svg

<svg xmlns="http://www.w3.org/2000/svg" xmlns:xlink="http://www.w3.org/1999/xlink" width="2000" zoomAndPan="magnify" viewBox="0 0 1500 1499.999933" height="2000" preserveAspectRatio="xMidYMid meet" version="1.0"><defs><clipPath id="2a65e05c12"><rect x="0" width="573" y="0" height="501"/></clipPath></defs><g transform="matrix(1, 0, 0, 1, 463, 501)"><g clip-path="url(#2a65e05c12)"><path fill="#7c3aed" d="M 171.695312 99.949219 C 160.703125 90.054688 143.734375 90.945312 133.847656 101.9375 L 16.027344 232.847656 C 6.847656 243.054688 6.847656 258.515625 16.027344 268.722656 L 133.847656 399.632812 C 139.136719 405.515625 146.4375 408.496094 153.773438 408.496094 C 160.160156 408.496094 166.574219 406.230469 171.695312 401.621094 C 182.699219 391.710938 183.589844 374.765625 173.6875 363.757812 L 72.003906 250.785156 L 173.6875 137.816406 C 183.589844 126.804688 182.699219 109.859375 171.695312 99.949219 Z M 171.695312 99.949219 " fill-opacity="1" fill-rule="nonzero"/><path fill="#7c3aed" d="M 556.1875 232.847656 L 438.367188 101.9375 C 428.472656 90.945312 411.527344 90.054688 400.515625 99.949219 C 389.515625 109.859375 388.625 126.804688 398.527344 137.816406 L 500.207031 250.785156 L 398.527344 363.757812 C 388.625 374.765625 389.515625 391.710938 400.515625 401.621094 C 405.636719 406.230469 412.050781 408.496094 418.4375 408.496094 C 425.773438 408.496094 433.078125 405.515625 438.367188 399.632812 L 556.1875 268.722656 C 565.367188 258.515625 565.367188 243.054688 556.1875 232.847656 Z M 556.1875 232.847656 " fill-opacity="1" fill-rule="nonzero"/><path fill="#7c3aed" d="M 346.578125 4.464844 C 332.164062 0.972656 317.691406 9.734375 314.167969 24.113281 L 205.996094 464.6875 C 202.460938 479.066406 211.253906 493.566406 225.632812 497.109375 C 227.78125 497.632812 229.925781 497.875 232.039062 497.875 C 244.097656 497.875 255.046875 489.691406 258.046875 477.460938 L 366.21875 36.886719 C 369.753906 22.507812 360.957031 8.007812 346.578125 4.464844 Z M 346.578125 4.464844 " fill-opacity="1" fill-rule="nonzero"/></g></g></svg>

<svg xmlns="http://www.w3.org/2000/svg" width="2000" height="2000" viewBox="0 0 1500 1500"><defs><clipPath id="2a65e05c12"><path d="M0 0h573v501H0z"/></clipPath></defs><g fill="#7c3aed" clip-path="url(#2a65e05c12)" transform="translate(463 501)"><path d="M171.695 99.95c-10.992-9.895-27.96-9.005-37.847 1.987l-117.82 130.91c-9.18 10.208-9.18 25.669 0 35.876l117.82 130.91c5.289 5.883 12.59 8.863 19.925 8.863a26.7 26.7 0 0 0 17.922-6.875c11.004-9.91 11.895-26.855 1.993-37.863L72.004 250.785l101.684-112.969c9.902-11.011 9.011-27.957-1.993-37.867m384.493 132.899-117.82-130.91c-9.895-10.993-26.84-11.883-37.852-1.989-11 9.91-11.891 26.856-1.989 37.867l101.68 112.97-101.68 112.972c-9.902 11.008-9.011 27.953 1.989 37.863a26.7 26.7 0 0 0 17.921 6.875c7.336 0 14.641-2.98 19.93-8.863l117.82-130.91c9.18-10.207 9.18-25.668 0-35.875M346.578 4.465c-14.414-3.492-28.887 5.27-32.41 19.648L205.996 464.687c-3.535 14.38 5.258 28.88 19.637 32.422 2.148.524 4.293.766 6.406.766 12.059 0 23.008-8.184 26.008-20.414L366.219 36.887c3.535-14.38-5.262-28.88-19.64-32.422m0 0"/></g></svg>
